TH1/twoscales2.svg

<svg xmlns="http://www.w3.org/2000/svg" viewBox="0 0 1200 800" preserveAspectRatio="none" width="1200" height="800">
 <path d="M0,0H1200V800H0Z" style="fill: white;"></path>
 <g>
  <g transform="translate(120,80)">
   <path d="M0,0H960V640H0Z" style="fill: white; stroke: black; stroke-width: 1;"></path>
   <svg x="0" y="0" overflow="hidden" width="960" height="640" viewBox="0 0 960 640">
    <g>
     <path d="M0,640h67v-12h39v-23h9v23h10v-23h9v12h10v-35h10v-11h9v-23h10v34h9v-57h10v-184h10v92h9v-58h19v-69h10v12h10v-58h9v-103h10v-104h9v161h10v-115h10v-69h9v173h10v-161h9v11h10v58h10v-81h9v173h10v115h9v-81h10v-34h10v184h9v-81h10v58h9v103h10v-34h10v57h9v-11h10v46h9v34h10v58h10v-35h9v58h19v-23h20v11h9v12h413" style="stroke-linejoin: miter; stroke: #00009a; stroke-width: 1; fill: none;"></path>
    </g>
    <g>
     <path d="M0,622h10v2h9v-9h19v-6h10v5h10v-12h9v-4h10v4h9v-5h10v-6h10v-5h9v2h10v-7h9v-6h10v-8h10v-5h9v-15h10v6h9v-19h10v13h10v-13h9v-5h10v-36h9v-4h10v-8h10v-2h9v-1h10v-25h9v-2h10v-26h10v-7h9v-21h10v-15h9v-1h10v6h10v-47h9v-7h10v-6h9v-20h10v-2h10v-12h9v-31h10v13h9v-65h10v33h10v-54h9v6h10v34h9v-55h10v-15h10v-22h9v3h10v-32h9v-2h10v-10h10v20h9v-43h10v-2h9v-1h20v11h9v-26h10v2h9v1h10v-28h10v27h9v18h10v-5h9v-10h10v-14h10v-4h9v18h10v19h9v-37h10v45h10v23h9v-1h10v6h9v3h10v22h10v-29h9v54h10v2h9v15h10v6h10v16h9v23h10v9h9v17h10v14h10v-4h9v37h10v4h9v9h10v21h19v17h10v34h9v23h10" style="stroke-linejoin: miter; stroke: #ff0000; stroke-width: 1; fill: none;"></path>
    </g>
   </svg>
   <g>
    <g transform="translate(0,640)">
     <path d="M0,0h960M0,-24v24m32,-12v12m32,-12v12m32,-12v12m32,-12v12m32,-24v24m32,-12v12m32,-12v12m32,-12v12m32,-12v12m32,-24v24m32,-12v12m32,-12v12m32,-12v12m32,-12v12m32,-24v24m32,-12v12m32,-12v12m32,-12v12m32,-12v12m32,-24v24m32,-12v12m32,-12v12m32,-12v12m32,-12v12m32,-24v24m32,-12v12m32,-12v12m32,-12v12m32,-12v12m32,-24v24" style="stroke: black; stroke-width: 1;"></path>
     <g font-family="Arial" font-size="28" space="preserve" fill="black" text-anchor="middle">
      <text dy=".8em" transform="translate(0,6)">
       -3
      </text>
      <text dy=".8em" transform="translate(160,6)">
       -2
      </text>
      <text dy=".8em" transform="translate(320,6)">
       -1
      </text>
      <text dy=".8em" transform="translate(480,6)">
       0
      </text>
      <text dy=".8em" transform="translate(640,6)">
       1
      </text>
      <text dy=".8em" transform="translate(800,6)">
       2
      </text>
      <text dy=".8em" transform="translate(960,6)">
       3
      </text>
     </g>
    </g>
    <g>
     <path d="M0,0v640M36,640h-36m18,-23h-18m18,-23h-18m18,-23h-18m18,-23h-18m36,-23h-36m18,-23h-18m18,-23h-18m18,-23h-18m18,-23h-18m36,-23h-36m18,-23h-18m18,-23h-18m18,-23h-18m18,-23h-18m36,-23h-36m18,-23h-18m18,-23h-18m18,-23h-18m18,-23h-18m36,-23h-36m18,-23h-18m18,-23h-18m18,-23h-18m18,-23h-18m36,-23h-36m18,-23h-18m18,-23h-18" style="stroke: black; stroke-width: 1;"></path>
     <g font-family="Arial" font-size="28" space="preserve" fill="black" text-anchor="end">
      <text dy=".4em" transform="translate(-4,640)">
       0
      </text>
      <text dy=".4em" transform="translate(-4,525)">
       10
      </text>
      <text dy=".4em" transform="translate(-4,410)">
       20
      </text>
      <text dy=".4em" transform="translate(-4,295)">
       30
      </text>
      <text dy=".4em" transform="translate(-4,180)">
       40
      </text>
      <text dy=".4em" transform="translate(-4,65)">
       50
      </text>
     </g>
    </g>
    <g transform="translate(960)">
     <path d="M0,0v640M0,640h-36m36,-19h-18m18,-18h-18m18,-19h-18m18,-18h-36m36,-19h-18m18,-19h-18m18,-18h-18m18,-19h-36m36,-18h-18m18,-19h-18m18,-18h-18m18,-19h-36m36,-19h-18m18,-18h-18m18,-19h-18m18,-18h-36m36,-19h-18m18,-19h-18m18,-18h-18m18,-19h-36m36,-18h-18m18,-19h-18m18,-18h-18m18,-19h-36m36,-19h-18m18,-18h-18m18,-19h-18m18,-18h-36m36,-19h-18m18,-19h-18m18,-18h-18m18,-19h-36m36,-18h-18m18,-19h-18" style="stroke: red; stroke-width: 1;"></path>
     <g font-family="Arial" font-size="28" space="preserve" fill="red" text-anchor="start">
      <text dy=".4em" transform="translate(4,640)">
       0
      </text>
      <text dy=".4em" transform="translate(4,566)">
       200
      </text>
      <text dy=".4em" transform="translate(4,491)">
       400
      </text>
      <text dy=".4em" transform="translate(4,417)">
       600
      </text>
      <text dy=".4em" transform="translate(4,343)">
       800
      </text>
      <text dy=".4em" transform="translate(4,268)">
       1000
      </text>
      <text dy=".4em" transform="translate(4,194)">
       1200
      </text>
      <text dy=".4em" transform="translate(4,120)">
       1400
      </text>
      <text dy=".4em" transform="translate(4,45)">
       1600
      </text>
     </g>
    </g>
   </g>
  </g>
  <g transform="translate(120,4)" font-family="Arial" font-size="40" space="preserve">
   <text fill="black" text-anchor="middle" dy=".8em" transform="translate(480)">
    h1
   </text>
  </g>
  <g transform="translate(480,52)" font-family="Arial" font-size="23" space="preserve" fill="black">
   <path d="M0,0H240V128H0Z" style="fill: white; stroke: black; stroke-width: 1;"></path>
   <text text-anchor="middle" dy=".4em" transform="translate(120,16)">
    h1
   </text>
   <text text-anchor="start" dy=".4em" transform="translate(12,48)">
    Entries
   </text>
   <text text-anchor="end" dy=".4em" transform="translate(228,48)">
    1000
   </text>
   <text text-anchor="start" dy=".4em" transform="translate(12,80)">
    Mean
   </text>
   <text text-anchor="end" dy=".4em" transform="translate(228,80)">
    -1.021
   </text>
   <text text-anchor="start" dy=".4em" transform="translate(12,112)">
    Std Dev
   </text>
   <text text-anchor="end" dy=".4em" transform="translate(228,112)">
    0.4857
   </text>
   <path d="M0,32h240" style="stroke: black; stroke-width: 1;"></path>
  </g>
  <g transform="translate(780,52)" font-family="Arial" font-size="23" space="preserve" fill="#ff0000">
   <path d="M0,0H240V128H0Z" style="fill: white; stroke: black; stroke-width: 1;"></path>
   <text text-anchor="middle" dy=".4em" transform="translate(120,16)">
    h1
   </text>
   <text text-anchor="start" dy=".4em" transform="translate(12,48)">
    Entries
   </text>
   <text text-anchor="end" dy=".4em" transform="translate(228,48)">
    1000
   </text>
   <text text-anchor="start" dy=".4em" transform="translate(12,80)">
    Mean
   </text>
   <text text-anchor="end" dy=".4em" transform="translate(228,80)">
    -1.021
   </text>
   <text text-anchor="start" dy=".4em" transform="translate(12,112)">
    Std Dev
   </text>
   <text text-anchor="end" dy=".4em" transform="translate(228,112)">
    0.4857
   </text>
   <path d="M0,32h240" style="stroke: black; stroke-width: 1;"></path>
  </g>
 </g>
</svg>

<svg xmlns="http://www.w3.org/2000/svg" viewBox="0 0 1200 800" preserveAspectRatio="none" width="1200" height="800">
 <path d="M0,0H1200V800H0Z" style="fill: white;"></path>
 <g>
  <g transform="translate(120,80)">
   <path d="M0,0H960V640H0Z" style="fill: white; stroke: black; stroke-width: 1;"></path>
   <svg x="0" y="0" overflow="hidden" width="960" height="640" viewBox="0 0 960 640">
    <g>
     <path d="M0,640h67v-12h39v-23h9v23h10v-23h9v12h10v-35h10v-11h9v-23h10v34h9v-57h10v-184h10v92h9v-58h19v-69h10v12h10v-58h9v-103h10v-104h9v161h10v-115h10v-69h9v173h10v-161h9v11h10v58h10v-81h9v173h10v115h9v-81h10v-34h10v184h9v-81h10v58h9v103h10v-34h10v57h9v-11h10v46h9v34h10v58h10v-35h9v58h19v-23h20v11h9v12h413" style="stroke-linejoin: miter; stroke: #00009a; stroke-width: 1; fill: none;"></path>
    </g>
    <g>
     <path d="M0,622h10v2h9v-9h19v-6h10v5h10v-12h9v-4h10v4h9v-5h10v-6h10v-5h9v2h10v-7h9v-6h10v-8h10v-5h9v-15h10v6h9v-19h10v13h10v-13h9v-5h10v-36h9v-4h10v-8h10v-2h9v-1h10v-25h9v-2h10v-26h10v-7h9v-21h10v-15h9v-1h10v6h10v-47h9v-7h10v-6h9v-20h10v-2h10v-12h9v-31h10v13h9v-65h10v33h10v-54h9v6h10v34h9v-55h10v-15h10v-22h9v3h10v-32h9v-2h10v-10h10v20h9v-43h10v-2h9v-1h20v11h9v-26h10v2h9v1h10v-28h10v27h9v18h10v-5h9v-10h10v-14h10v-4h9v18h10v19h9v-37h10v45h10v23h9v-1h10v6h9v3h10v22h10v-29h9v54h10v2h9v15h10v6h10v16h9v23h10v9h9v17h10v14h10v-4h9v37h10v4h9v9h10v21h19v17h10v34h9v23h10" style="stroke-linejoin: miter; stroke: #ff0000; stroke-width: 1; fill: none;"></path>
    </g>
   </svg>
   <g>
    <g transform="translate(0,640)">
     <path d="M0,0h960M0,-24V0M32,-12V0M64,-12V0M96,-12V0M128,-12V0M160,-24V0M192,-12V0M224,-12V0M256,-12V0M288,-12V0M320,-24V0M352,-12V0M384,-12V0M416,-12V0M448,-12V0M480,-24V0M512,-12V0M544,-12V0M576,-12V0M608,-12V0M640,-24V0M672,-12V0M704,-12V0M736,-12V0M768,-12V0M800,-24V0M832,-12V0M864,-12V0M896,-12V0M928,-12V0M960,-24V0" style="stroke: black; stroke-width: 1;"></path>
     <g font-family="Arial" font-size="28" space="preserve" fill="black" text-anchor="middle">
      <text dy=".8em" transform="translate(0,6)">
       -3
      </text>
      <text dy=".8em" transform="translate(160,6)">
       -2
      </text>
      <text dy=".8em" transform="translate(320,6)">
       -1
      </text>
      <text dy=".8em" transform="translate(480,6)">
       0
      </text>
      <text dy=".8em" transform="translate(640,6)">
       1
      </text>
      <text dy=".8em" transform="translate(800,6)">
       2
      </text>
      <text dy=".8em" transform="translate(960,6)">
       3
      </text>
     </g>
    </g>
    <g>
     <path d="M0,0v640M36,640H0M18,617H0M18,594H0M18,571H0M18,548H0M36,525H0M18,502H0M18,479H0M18,456H0M18,433H0M36,410H0M18,387H0M18,364H0M18,341H0M18,318H0M36,295H0M18,272H0M18,249H0M18,226H0M18,203H0M36,180H0M18,157H0M18,134H0M18,111H0M18,88H0M36,65H0M18,42H0M18,19H0" style="stroke: black; stroke-width: 1;"></path>
     <g font-family="Arial" font-size="28" space="preserve" fill="black" text-anchor="end">
      <text dy=".4em" transform="translate(-4,640)">
       0
      </text>
      <text dy=".4em" transform="translate(-4,525)">
       10
      </text>
      <text dy=".4em" transform="translate(-4,410)">
       20
      </text>
      <text dy=".4em" transform="translate(-4,295)">
       30
      </text>
      <text dy=".4em" transform="translate(-4,180)">
       40
      </text>
      <text dy=".4em" transform="translate(-4,65)">
       50
      </text>
     </g>
    </g>
    <g transform="translate(960)">
     <path d="M0,0v640M0,640H-36M0,621H-18M0,603H-18M0,584H-18M0,566H-36M0,547H-18M0,528H-18M0,510H-18M0,491H-36M0,473H-18M0,454H-18M0,436H-18M0,417H-36M0,398H-18M0,380H-18M0,361H-18M0,343H-36M0,324H-18M0,305H-18M0,287H-18M0,268H-36M0,250H-18M0,231H-18M0,213H-18M0,194H-36M0,175H-18M0,157H-18M0,138H-18M0,120H-36M0,101H-18M0,82H-18M0,64H-18M0,45H-36M0,27H-18M0,8H-18" style="stroke: red; stroke-width: 1;"></path>
     <g font-family="Arial" font-size="28" space="preserve" fill="red" text-anchor="start">
      <text dy=".4em" transform="translate(4,640)">
       0
      </text>
      <text dy=".4em" transform="translate(4,566)">
       200
      </text>
      <text dy=".4em" transform="translate(4,491)">
       400
      </text>
      <text dy=".4em" transform="translate(4,417)">
       600
      </text>
      <text dy=".4em" transform="translate(4,343)">
       800
      </text>
      <text dy=".4em" transform="translate(4,268)">
       1000
      </text>
      <text dy=".4em" transform="translate(4,194)">
       1200
      </text>
      <text dy=".4em" transform="translate(4,120)">
       1400
      </text>
      <text dy=".4em" transform="translate(4,45)">
       1600
      </text>
     </g>
    </g>
   </g>
  </g>
  <g transform="translate(120,4)" font-family="Arial" font-size="40" space="preserve">
   <text fill="black" text-anchor="middle" dy=".8em" transform="translate(480)">
    h1
   </text>
  </g>
  <g transform="translate(480,52)" font-family="Arial" font-size="23" space="preserve" fill="black">
   <path d="M0,0H240V128H0Z" style="fill: white; stroke: black; stroke-width: 1;"></path>
   <text text-anchor="middle" dy=".4em" transform="translate(120,16)">
    h1
   </text>
   <text text-anchor="start" dy=".4em" transform="translate(12,48)">
    Entries
   </text>
   <text text-anchor="end" dy=".4em" transform="translate(228,48)">
    1000
   </text>
   <text text-anchor="start" dy=".4em" transform="translate(12,80)">
    Mean
   </text>
   <text text-anchor="end" dy=".4em" transform="translate(228,80)">
    -1.021
   </text>
   <text text-anchor="start" dy=".4em" transform="translate(12,112)">
    Std Dev
   </text>
   <text text-anchor="end" dy=".4em" transform="translate(228,112)">
    0.4857
   </text>
   <path d="M0,32h240" style="stroke: black; stroke-width: 1;"></path>
  </g>
  <g transform="translate(780,52)" font-family="Arial" font-size="23" space="preserve" fill="#ff0000">
   <path d="M0,0H240V128H0Z" style="fill: white; stroke: black; stroke-width: 1;"></path>
   <text text-anchor="middle" dy=".4em" transform="translate(120,16)">
    h1
   </text>
   <text text-anchor="start" dy=".4em" transform="translate(12,48)">
    Entries
   </text>
   <text text-anchor="end" dy=".4em" transform="translate(228,48)">
    1000
   </text>
   <text text-anchor="start" dy=".4em" transform="translate(12,80)">
    Mean
   </text>
   <text text-anchor="end" dy=".4em" transform="translate(228,80)">
    -1.021
   </text>
   <text text-anchor="start" dy=".4em" transform="translate(12,112)">
    Std Dev
   </text>
   <text text-anchor="end" dy=".4em" transform="translate(228,112)">
    0.4857
   </text>
   <path d="M0,32h240" style="stroke: black; stroke-width: 1;"></path>
  </g>
 </g>
</svg>
